X:1
T: Miss Milligan's Favourite
C:
R:Reel
Q: 232
K:D
M:4/4
L:1/8
|:fe|d3B A2 F2|E2 e2 e2 fe|d3B A2 F2|B6 FG|A3a f2 e2|d2 F2 F2 FA|B3A F2 A2|B6 AB|
d3f d2 A2|Bc de f2 fg|a3f e2 d2|B4 C2 AG|F2 A2 d3A|Bc de f2 fg|a3A B2 A2|d6 fg|
a2 gf ef ga|fe df e2 fg|ab af e2 d2|B4 C2 AG|F2 A2 d3A|Bc de f2 fg|ab c'd' e'2 a2|d6:|
